assets/svg/icon-large-wings-blue.svg

<?xml version="1.0" encoding="UTF-8" standalone="no"?>
<svg width="153px" height="63px" viewBox="0 0 153 63" version="1.1" xmlns="http://www.w3.org/2000/svg" xmlns:xlink="http://www.w3.org/1999/xlink">
    <!-- Generator: Sketch 3.8.3 (29802) - http://www.bohemiancoding.com/sketch -->
    <title>blue/icon-large-wings-blue</title>
    <desc>Created with Sketch.</desc>
    <defs></defs>
    <g id="blue,-base" stroke="none" stroke-width="1" fill="none" fill-rule="evenodd">
        <g id="icons,-large-detailed-(blue)" transform="translate(-583.000000, -745.000000)" fill="#1055FF">
            <g id="blue/icon-large-wings-blue" transform="translate(583.000000, 745.000000)">
                <g id="Path-146">
                    <g id="Page-1">
                        <g id="Stratum-2016_02_16-kg-v1.2">
                            <g id="focus">
                                <g id="lockin">
                                    <path d="M0.959850758,2.33417386 L55.0868247,16.917283 C57.4450958,17.5526578 60.395271,19.8360701 61.6013062,21.9637484 L74.4815993,44.6870656 C75.2479479,46.039052 75.448297,48.3774851 74.9117263,49.7995599 C74.8706524,49.9222071 74.8118792,50.0952084 74.7257552,50.3394154 C74.5813361,50.7489196 74.4133687,51.2058492 74.2238011,51.6982059 C73.6825241,53.1040433 73.0777971,54.5093554 72.4262712,55.8169674 C70.9683979,58.7429177 69.4869867,60.7358831 68.1963044,61.3076128 L69.0338091,61.4256123 C68.4866681,60.9676206 68.0708327,57.1135304 67.9993913,51.6968346 C67.9660661,49.1701187 67.997767,46.4598168 68.0710108,43.8046485 C68.0895238,43.1335336 68.1093556,42.5185726 68.12918,41.9731197 C68.1410557,41.6463714 68.1502727,41.4157799 68.1555045,41.2946878 L68.4419107,34.6656161 L66.5881072,41.0366468 C66.5494773,41.1694074 66.4698579,41.4262389 66.3494095,41.7892991 C66.1472084,42.3987822 65.9044566,43.0790323 65.6213682,43.81216 C64.8127018,45.9064027 63.8448436,48.0001143 62.7212732,49.9491809 C60.4878256,53.8235602 57.9312054,56.619673 55.1025629,57.8871262 L56.2153127,58.7681611 C56.2410196,58.6343894 56.2897586,58.3828569 56.3586971,58.0304013 C56.4736691,57.4425946 56.6031797,56.7875163 56.7443942,56.0820127 C57.1478066,54.0665771 57.564077,52.0512716 57.970445,50.1711937 C58.1074698,49.5372431 58.2413198,48.9283463 58.3714612,48.3476557 C58.9562129,45.7384951 59.4467091,43.7840593 59.8048156,42.6903391 L62.0370057,35.8728399 L58.3577649,42.031099 C57.4094768,43.6183296 56.2835079,45.1355274 55.0166167,46.5755881 C53.5752614,48.2139602 52.0293118,49.6683212 50.4841451,50.920113 C49.9443254,51.3574393 49.4438784,51.7377263 48.9960059,52.0587759 C48.7304405,52.2491418 48.5436712,52.3760538 48.4488959,52.4373598 C48.242926,52.5829228 48.4660532,52.7029464 48.4851853,52.5488308 L48.4749851,52.2896341 C48.4797734,52.3161554 48.4797734,52.3161554 48.4771519,52.2959675 C48.3111879,50.6842809 49.6565503,47.7452573 54.0912073,43.5156282 L56.3570443,41.3545478 L53.3322757,42.1639062 L46.8096194,43.9092187 L47.1236017,43.8892455 C46.9692012,43.8683685 46.6727072,43.8237386 46.2545454,43.7534771 C45.5538032,43.6357352 44.7720265,43.4885925 43.9297036,43.3102118 C41.5246163,42.800881 39.1204424,42.1444954 36.8828093,41.3280067 C33.5591059,40.1152224 30.9075658,38.6563176 29.1836131,36.9561759 L28.7155207,38.3202814 L55.5233331,35.1605158 L55.3276204,33.5725535 C55.2255995,33.5856773 55.030844,33.6104731 54.7551435,33.6451686 C54.2952909,33.7030386 53.7759513,33.7675337 53.2080155,33.8369963 C51.5852988,34.0354661 49.8987267,34.233935 48.2355491,34.4191323 C47.5052225,34.5004553 46.7941304,34.5775409 46.1066184,34.6497298 C41.277501,35.1567882 37.7035322,35.3871283 37.3673429,35.2306085 C28.7537131,31.2203579 16.8874979,23.3240569 15.7307058,19.785775 L14.9003378,20.8313089 C16.5075553,20.9724304 22.0339701,21.4371677 30.2544188,22.1240416 C30.3060217,22.1283533 30.3060217,22.1283533 30.3576252,22.132665 C33.8415418,22.4237589 37.5742946,22.7351096 41.3070453,23.0461039 C43.4222675,23.2223041 43.4222675,23.2223041 44.9153687,23.3466129 C46.0351985,23.4398225 46.0351985,23.4398225 46.2840631,23.460527 L46.4147834,21.865877 L30.0787279,20.5466906 C29.3016296,20.4839375 28.0767111,20.1261832 27.3934125,19.7599097 C27.1867119,19.6518437 26.8108189,19.4527966 26.28357,19.1694086 C25.4035838,18.6964297 24.4227185,18.160229 23.3662693,17.5713992 C20.348409,15.8893437 17.3308454,14.123458 14.5166656,12.3590917 C12.813402,11.2912207 11.2361826,10.2554195 9.81058468,9.26263422 C4.8463298,5.80553096 1.96796877,3.00025352 1.96796875,1.56171874 L0.959850758,2.33417386 L0.959850758,2.33417386 Z M1.37608674,0.789263638 L0.367968739,0.517652392 L0.36796875,1.56171876 C0.367968776,3.79256027 3.40162703,6.74919183 8.89622062,10.5756226 C10.3444523,11.58417 11.9428556,12.6338833 13.6667616,13.7146961 C16.5067201,15.4952245 19.5471619,17.2744986 22.5873069,18.9689748 C23.6511597,19.5619311 24.6391461,20.1020247 25.5260781,20.5787368 C26.0589802,20.8651634 26.4403379,21.0671042 26.6449412,21.1740243 C27.5159562,21.640971 28.9544841,22.0611128 29.9499421,22.1414991 L46.2859977,23.4606855 L46.416718,21.8660356 C46.1678903,21.8453342 46.1678903,21.8453342 45.0481046,21.7521282 C43.5550518,21.6278235 43.5550518,21.6278235 41.4398892,21.4516283 C37.7072549,21.1406437 33.9746228,20.829303 30.4908468,20.5382209 C30.4392457,20.5339094 30.4392457,20.5339094 30.3876453,20.5295979 C22.1710735,19.8430479 16.6440693,19.378261 15.0402872,19.2374412 L13.8334523,19.1314752 L14.2099192,20.2829751 C15.5694153,24.4412681 27.6059133,32.4508828 36.6920322,36.6811103 C37.4608112,37.039031 40.6002356,36.8366971 46.2737002,36.2409821 C46.9646707,36.16843 47.6790739,36.0909855 48.4126171,36.0093043 C50.0820278,35.823413 51.7741835,35.6242869 53.4022594,35.4251617 C53.972101,35.355466 54.4932772,35.2907428 54.9549193,35.2326476 C55.2321156,35.1977639 55.4277173,35.1728604 55.5317546,35.1594779 L55.3360419,33.5715155 L28.5282294,36.7312811 L26.8745691,36.9261937 L28.0601369,38.0953867 C29.976465,39.9852467 32.8142227,41.5466104 36.3343573,42.8310704 C38.6501467,43.6760775 41.1246398,44.3516616 43.5982195,44.8754972 C44.4634301,45.0587248 45.2672202,45.2100109 45.9894226,45.3313586 C46.4250275,45.4045509 46.7383668,45.4517164 46.9092107,45.4748169 L47.2231931,45.4548437 L53.7458494,43.7095313 L52.9869178,42.3578092 C50.2764528,44.9429611 48.5502807,47.2469195 47.626656,49.2646323 C46.9953925,50.6436645 46.8089928,51.7162332 46.8855682,52.4598614 C46.8978257,52.560197 46.8978257,52.560197 46.9075736,52.6109147 L46.8973734,52.351718 C46.7011546,53.9323275 48.0706548,54.669003 49.3471298,53.7609642 C49.4335642,53.705982 49.6413571,53.5647842 49.9281787,53.3591811 C50.4009514,53.0202823 50.9263661,52.6210225 51.4913204,52.1633338 C53.1026513,50.8579401 54.7131992,49.3428079 56.2179082,47.6324224 C57.5466229,46.1220876 58.7304164,44.5269735 59.7312975,42.8517135 L58.2842468,42.1924734 C57.9052672,43.3499431 57.4058355,45.3399837 56.8101902,47.9977516 C56.6791261,48.5825593 56.5444106,49.1953933 56.4065591,49.8331688 C55.9982654,51.7221561 55.58041,53.7451348 55.1755139,55.7679834 C55.0338205,56.4758793 54.903858,57.1332433 54.7884519,57.7232695 C54.7191636,58.0775137 54.6700912,58.3307667 54.6440623,58.466214 L54.3539581,59.9758372 L55.7568121,59.3472488 C58.9530809,57.9150703 61.7212813,54.8875573 64.1074443,50.7482613 C65.2760447,48.7210809 66.2775753,46.5545277 67.1139585,44.3885057 C67.4066375,43.6305407 67.6579844,42.9262048 67.8680188,42.2931106 C67.9949118,41.9106245 68.0803811,41.6349229 68.124393,41.4836658 L66.5569957,41.2256249 C66.5516105,41.3502678 66.5422481,41.584497 66.5302357,41.9150061 C66.5102469,42.4649821 66.4902654,43.0845879 66.4716193,43.7605286 C66.3978233,46.4357116 66.3658812,49.1666433 66.3995304,51.7179354 C66.4825762,58.0144759 66.8813491,61.7104259 68.0068158,62.6525128 L68.3888275,62.9722807 L68.8443206,62.7705123 C70.5918263,61.996425 72.2391395,59.7802691 73.8583521,56.5305107 C74.5347519,55.172977 75.1587954,53.7227758 75.716951,52.2731 C75.9121847,51.7660271 76.0853657,51.2949149 76.234669,50.871561 C76.3247785,50.6160532 76.3872671,50.4321154 76.4202817,50.3315847 C77.1146849,48.4933486 76.8718762,45.6593354 75.8735364,43.8980717 L62.9932432,21.1747546 C61.5760293,18.6745163 58.2743143,16.119015 55.5030607,15.3723727 L1.37608674,0.789263638 L1.37608674,0.789263638 Z M151.752819,0.789263638 L97.6258455,15.3723727 C94.854592,16.119015 91.5528769,18.6745163 90.135663,21.1747546 L77.2553699,43.8980717 C76.2570301,45.6593354 76.0142213,48.4933486 76.7201958,50.364395 C76.7416391,50.4321154 76.8041278,50.6160532 76.8942372,50.871561 C77.0435406,51.2949149 77.2167215,51.7660271 77.4119552,52.2731 C77.9701108,53.7227758 78.5941544,55.172977 79.2705541,56.5305107 C80.8897668,59.7802691 82.5370799,61.996425 84.2845857,62.7705123 L84.7400788,62.9722807 L85.1220904,62.6525128 C86.2475571,61.7104259 86.64633,58.0144759 86.7293759,51.7179354 C86.7630252,49.1666432 86.7310831,46.4357113 86.6572871,43.7605281 C86.638641,43.0845876 86.6186595,42.4649818 86.5986706,41.915006 C86.5866583,41.584497 86.5772959,41.3502678 86.5719107,41.2256249 L85.0045134,41.4836658 C85.0485253,41.6349229 85.1339946,41.9106245 85.2608876,42.2931106 C85.470922,42.9262048 85.7222689,43.6305407 86.0149479,44.3885056 C86.851331,46.5545277 87.8528616,48.7210809 89.021462,50.7482613 C91.4076249,54.8875573 94.1758254,57.9150703 97.3720941,59.3472488 L98.7749481,59.9758372 L98.4848439,58.466214 C98.4588151,58.3307667 98.4097427,58.0775137 98.3404543,57.7232695 C98.2250483,57.1332433 98.0950858,56.4758793 97.9533924,55.7679834 C97.5484963,53.7451348 97.1306409,51.7221561 96.7223472,49.8331688 C96.5844956,49.1953929 96.4497801,48.5825587 96.3187159,47.9977506 C95.7230707,45.3399832 95.223639,43.349943 94.8446595,42.1924734 L93.3976088,42.8517135 C94.3984898,44.5269735 95.5822833,46.1220876 96.910998,47.6324224 C98.415707,49.3428079 100.026255,50.8579401 101.637586,52.1633338 C102.20254,52.6210225 102.727955,53.0202823 103.200728,53.3591811 C103.487549,53.5647842 103.695342,53.705982 103.811,53.780796 C105.058251,54.669003 106.427752,53.9323275 106.231533,52.351718 L106.221333,52.6109147 C106.231081,52.560197 106.231081,52.560197 106.243338,52.4598614 C106.319913,51.7162332 106.133514,50.6436645 105.50225,49.2646323 C104.578626,47.2469195 102.852453,44.9429611 100.141988,42.3578092 L99.3830569,43.7095313 L105.905713,45.4548437 L106.219695,45.4748169 C106.390539,45.4517164 106.703879,45.4045509 107.139484,45.3313586 C107.861686,45.2100109 108.665476,45.0587249 109.530687,44.8754972 C112.004266,44.3516616 114.478759,43.6760776 116.794549,42.8310704 C120.314684,41.5466104 123.152441,39.9852468 125.068769,38.0953867 L126.254337,36.9261937 L124.600677,36.7312811 L97.7928643,33.5715155 L97.5971516,35.1594779 C97.701189,35.1728604 97.8967906,35.1977639 98.173987,35.2326476 C98.635629,35.2907428 99.1568052,35.355466 99.7266468,35.4251617 C101.354723,35.6242869 103.046878,35.823413 104.716289,36.0093043 C105.449832,36.0909855 106.164236,36.16843 106.855206,36.2409821 C112.528671,36.8366971 115.668095,37.039031 116.436874,36.6811103 C125.522993,32.4508828 137.559491,24.4412681 138.918987,20.2829751 L139.295454,19.1314752 L138.088619,19.2374412 C136.484837,19.378261 130.957833,19.8430479 122.741261,20.5295979 C122.689661,20.5339094 122.689661,20.5339094 122.638059,20.5382209 C119.154283,20.829303 115.421651,21.1406437 111.689017,21.4516283 C109.573854,21.6278235 109.573854,21.6278235 108.080802,21.7521282 C106.961016,21.8453342 106.961016,21.8453342 106.712188,21.8660356 L106.842909,23.4606855 L123.178964,22.1414991 C124.174422,22.0611128 125.61295,21.640971 126.491402,21.170088 C126.688568,21.0671042 127.069926,20.8651634 127.602828,20.5787368 C128.48976,20.1020247 129.477747,19.5619311 130.541599,18.9689748 C133.581744,17.2744986 136.622186,15.4952246 139.462145,13.7146961 C141.186051,12.6338833 142.784454,11.58417 144.232686,10.5756226 C149.727279,6.74919182 152.760937,3.79256027 152.760937,1.56171875 L152.760937,0.517652395 L151.752819,0.789263638 L151.752819,0.789263638 Z M152.169055,2.33417386 L151.160937,1.56171875 C151.160937,3.00025353 148.282576,5.80553096 143.318322,9.26263422 C141.892724,10.2554195 140.315504,11.2912207 138.612241,12.3590917 C135.798061,14.123458 132.780497,15.8893437 129.762637,17.5713992 C128.706188,18.160229 127.725322,18.6964297 126.845336,19.1694086 C126.318087,19.4527966 125.942194,19.6518437 125.742931,19.7559735 C125.052195,20.1261832 123.827277,20.4839375 123.050178,20.5466906 L106.714123,21.865877 L106.844843,23.460527 C107.093708,23.4398225 107.093708,23.4398225 108.213538,23.3466129 C109.706639,23.2223041 109.706639,23.2223041 111.821861,23.0461039 C115.554612,22.7351096 119.287364,22.4237589 122.771281,22.132665 C122.822885,22.1283533 122.822885,22.1283533 122.874487,22.1240416 C131.094936,21.4371677 136.621351,20.9724304 138.228568,20.8313089 L137.3982,19.785775 C136.241408,23.3240569 124.375193,31.2203579 115.761563,35.2306084 C115.425374,35.3871283 111.851405,35.1567882 107.022288,34.6497298 C106.334776,34.5775409 105.623684,34.5004553 104.893357,34.4191323 C103.23018,34.233935 101.543607,34.0354661 99.9208907,33.8369963 C99.3529549,33.7675337 98.8336154,33.7030386 98.3737628,33.6451686 C98.0980623,33.6104731 97.9033067,33.5856773 97.8012858,33.5725535 L97.6055731,35.1605158 L124.413386,38.3202814 L123.945293,36.9561759 C122.22134,38.6563176 119.5698,40.1152224 116.246097,41.3280068 C114.008464,42.1444955 111.60429,42.800881 109.199203,43.3102119 C108.35688,43.4885925 107.575103,43.6357352 106.874361,43.7534771 C106.456199,43.8237386 106.159705,43.8683685 106.005305,43.8892455 L106.319287,43.9092187 L99.7966305,42.1639062 L96.7718619,41.3545478 L99.037699,43.5156282 C103.472356,47.7452573 104.817718,50.6842809 104.651754,52.2959675 C104.649133,52.3161554 104.649133,52.3161554 104.653921,52.2896341 L104.643721,52.5488308 C104.662853,52.7029464 104.88598,52.5829228 104.709234,52.4571916 C104.585235,52.3760538 104.398466,52.2491418 104.1329,52.0587759 C103.685028,51.7377263 103.184581,51.3574393 102.644761,50.920113 C101.099594,49.6683212 99.5536449,48.2139602 98.1122895,46.5755881 C96.8453984,45.1355274 95.7194294,43.6183296 94.7711413,42.031099 L91.0918999,35.8728389 L93.3240906,42.6903391 C93.6821972,43.7840592 94.1726933,45.7384946 94.7574449,48.3476547 C94.8875864,48.9283456 95.0214364,49.5372428 95.1584613,50.1711937 C95.5648293,52.0512716 95.9810997,54.0665771 96.384512,56.0820127 C96.5257266,56.7875163 96.6552372,57.4425946 96.7702091,58.0304013 C96.8391476,58.3828569 96.8878866,58.6343893 96.9135935,58.7681611 L98.0263433,57.8871262 C95.1977009,56.619673 92.6410806,53.8235602 90.4076332,49.9491809 C89.2840627,48.0001143 88.3162046,45.9064027 87.5075381,43.81216 C87.2244498,43.0790323 86.981698,42.3987822 86.7794969,41.7892991 C86.6590485,41.4262389 86.5794291,41.1694074 86.5407992,41.0366468 L84.6869957,34.665616 L84.9734019,41.2946878 C84.9786337,41.4157798 84.9878507,41.6463713 84.9997264,41.9731195 C85.0195508,42.5185723 85.0393826,43.1335332 85.0578955,43.804648 C85.1311394,46.4598164 85.1628402,49.1701185 85.129515,51.6968346 C85.0580736,57.1135304 84.6422382,60.9676206 84.0950971,61.4256123 L84.9326019,61.3076128 C83.6419196,60.7358831 82.1605083,58.7429177 80.7026351,55.8169674 C80.0511091,54.5093554 79.4463821,53.1040433 78.9051052,51.6982059 C78.7155375,51.2058492 78.5475701,50.7489196 78.4031511,50.3394154 C78.3170271,50.0952084 78.2582539,49.9222071 78.2287511,49.8323701 C77.6806093,48.3774851 77.8809584,46.039052 78.6473069,44.6870656 L91.5276,21.9637484 C92.7336352,19.8360701 95.6838105,17.5526578 98.0420815,16.917283 L152.169055,2.33417386 L152.169055,2.33417386 Z" id="Path-146"></path>
                                </g>
                            </g>
                        </g>
                    </g>
                </g>
            </g>
        </g>
    </g>
</svg>

<svg width="153" height="63" viewBox="0 0 153 63" xmlns="http://www.w3.org/2000/svg"><title>blue/icon-large-wings-blue</title><path d="M.96 2.334l54.127 14.583c2.358.636 5.308 2.92 6.514 5.047l12.88 22.723c.767 1.352.967 3.69.43 5.113a51.157 51.157 0 0 1-.688 1.899 47.993 47.993 0 0 1-1.797 4.118c-1.458 2.926-2.939 4.919-4.23 5.49l.838.119c-.547-.458-.963-4.312-1.035-9.73-.033-2.526-.001-5.236.072-7.891a210.641 210.641 0 0 1 .085-2.51l.286-6.63-1.854 6.372c-.039.132-.118.39-.239.752-.202.61-.445 1.29-.728 2.023-.808 2.094-1.776 4.188-2.9 6.137-2.233 3.875-4.79 6.67-7.618 7.938l1.112.881.144-.738a454.459 454.459 0 0 1 1.611-7.859c.137-.634.271-1.243.401-1.823.585-2.61 1.076-4.564 1.434-5.658l2.232-6.817-3.68 6.158a30.903 30.903 0 0 1-3.34 4.545 37.49 37.49 0 0 1-4.533 4.344c-.54.437-1.04.818-1.488 1.139-.266.19-.452.317-.547.378-.206.146.017.266.036.112l-.01-.26c.005.027.005.027.002.007-.166-1.612 1.18-4.55 5.614-8.78l2.266-2.161-3.025.809-6.522 1.745.314-.02c-.155-.02-.451-.065-.87-.136-.7-.117-1.482-.264-2.324-.443-2.405-.51-4.81-1.166-7.047-1.982-3.324-1.213-5.975-2.672-7.7-4.372l-.467 1.364 26.807-3.16-.195-1.587-.573.072a450.134 450.134 0 0 1-6.52.774c-.73.081-1.44.159-2.128.23-4.83.508-8.403.738-8.74.582-8.613-4.01-20.48-11.907-21.636-15.445l-.83 1.045c1.607.141 7.133.606 15.353 1.293l.104.009a47039.106 47039.106 0 0 0 14.557 1.214l1.37.114.13-1.595-16.336-1.32c-.777-.062-2.002-.42-2.686-.786-.206-.108-.582-.307-1.11-.59-.88-.474-1.86-1.01-2.917-1.599a201.752 201.752 0 0 1-8.85-5.212 117.535 117.535 0 0 1-4.705-3.096C4.846 5.806 1.968 3 1.968 1.562L.96 2.334zM1.376.79L.368.518v1.044c0 2.23 3.034 5.187 8.528 9.014a119.108 119.108 0 0 0 4.77 3.139c2.84 1.78 5.881 3.56 8.921 5.254a220.237 220.237 0 0 0 4.058 2.205c.871.467 2.31.887 3.305.967l16.336 1.32.13-1.595-1.368-.114-3.608-.3-10.95-.914-.102-.008a6444.4 6444.4 0 0 1-15.348-1.293l-1.207-.106.377 1.152c1.36 4.158 13.396 12.168 22.482 16.398.769.358 3.908.156 9.582-.44a468.644 468.644 0 0 0 9.258-1.082l-.196-1.587-26.808 3.16-1.653.194 1.185 1.17c1.916 1.89 4.754 3.45 8.274 4.735 2.316.845 4.79 1.52 7.264 2.044.865.184 1.67.335 2.391.456.436.074.75.12.92.144l.314-.02 6.523-1.745-.76-1.352c-2.71 2.585-4.436 4.889-5.36 6.907-.63 1.379-.817 2.451-.74 3.195.012.1.012.1.022.15l-.01-.258c-.197 1.58 1.173 2.317 2.45 1.409.086-.055.293-.196.58-.402.473-.339.998-.738 1.563-1.196a39.076 39.076 0 0 0 4.727-4.53 32.492 32.492 0 0 0 3.513-4.781l-1.447-.66c-.379 1.158-.878 3.148-1.474 5.806a247.86 247.86 0 0 0-.403 1.835 401.212 401.212 0 0 0-1.619 7.89l-.144.743-.29 1.51 1.403-.629c3.196-1.432 5.964-4.46 8.35-8.599 1.169-2.027 2.17-4.193 3.007-6.36.293-.757.544-1.462.754-2.095.127-.382.212-.658.256-.81l-1.567-.257-.027.689c-.02.55-.04 1.17-.058 1.846a198.533 198.533 0 0 0-.072 7.957c.083 6.296.481 9.992 1.607 10.935l.382.32.455-.202c1.748-.775 3.395-2.99 5.014-6.24a49.555 49.555 0 0 0 1.859-4.258 52.75 52.75 0 0 0 .703-1.941c.695-1.839.452-4.673-.546-6.434l-12.88-22.723c-1.418-2.5-4.72-5.056-7.49-5.803L1.375.79zm150.377 0L97.626 15.372c-2.771.747-6.073 3.303-7.49 5.803l-12.88 22.723c-.999 1.761-1.242 4.595-.536 6.466a52.75 52.75 0 0 0 .692 1.909c.558 1.45 1.182 2.9 1.859 4.258 1.619 3.25 3.266 5.465 5.014 6.24l.455.201.382-.32c1.126-.942 1.524-4.638 1.607-10.934.034-2.551.002-5.282-.072-7.957a212.229 212.229 0 0 0-.085-2.535l-1.567.258c.044.15.129.427.256.81.21.632.461 1.337.754 2.095.836 2.166 1.838 4.332 3.006 6.36 2.387 4.139 5.155 7.166 8.351 8.598l1.403.629-.29-1.51a456.024 456.024 0 0 0-1.762-8.633 247.86 247.86 0 0 0-.404-1.835c-.596-2.658-1.095-4.648-1.474-5.806l-1.447.66c1 1.675 2.184 3.27 3.513 4.78a39.076 39.076 0 0 0 4.727 4.531c.565.458 1.09.857 1.563 1.196.287.206.494.347.61.422 1.247.888 2.617.151 2.42-1.43l-.01.26c.01-.05.01-.05.022-.151.077-.744-.11-1.816-.74-3.195-.924-2.018-2.65-4.322-5.361-6.907l-.759 1.352 6.523 1.745.314.02c.17-.023.484-.07.92-.144a57.966 57.966 0 0 0 2.39-.456c2.474-.523 4.949-1.199 7.265-2.044 3.52-1.284 6.357-2.846 8.274-4.736l1.185-1.169-1.653-.195-26.808-3.16-.196 1.588.577.074a451.724 451.724 0 0 0 6.542.776c.734.082 1.448.16 2.14.232 5.673.596 8.812.798 9.58.44 9.087-4.23 21.123-12.24 22.483-16.398l.376-1.152-1.206.106c-1.604.141-7.131.606-15.348 1.293l-.103.008-10.949.914-3.608.3-1.369.114.13 1.595 16.337-1.32c.995-.08 2.434-.5 3.312-.97a220.232 220.232 0 0 0 4.05-2.201 203.31 203.31 0 0 0 8.921-5.255c1.724-1.081 3.322-2.13 4.77-3.14 5.495-3.826 8.529-6.782 8.529-9.013V.518l-1.008.271zm.416 1.545l-1.008-.772c0 1.438-2.878 4.244-7.843 7.7a117.536 117.536 0 0 1-4.706 3.097 201.752 201.752 0 0 1-8.85 5.212 218.645 218.645 0 0 1-4.02 2.185c-.69.37-1.915.728-2.692.79l-16.336 1.32.13 1.595 1.37-.114 3.608-.3 10.95-.914.102-.009c8.22-.687 13.747-1.152 15.355-1.293l-.83-1.045c-1.158 3.538-13.024 11.434-21.637 15.445-.337.156-3.91-.074-8.74-.581-.687-.072-1.398-.15-2.129-.23a467.07 467.07 0 0 1-7.092-.847l-.195 1.588 26.807 3.16-.468-1.365c-1.724 1.7-4.375 3.16-7.699 4.372-2.238.816-4.642 1.473-7.047 1.982-.842.179-1.624.326-2.325.443-.418.07-.714.115-.869.136l.314.02-6.522-1.745-3.025-.81 2.266 2.162c4.434 4.23 5.78 7.168 5.614 8.78-.003.02-.003.02.002-.006l-.01.259c.019.154.242.034.065-.092-.124-.08-.31-.208-.576-.398a31.992 31.992 0 0 1-1.488-1.139 37.49 37.49 0 0 1-4.533-4.344 30.903 30.903 0 0 1-3.34-4.545l-3.68-6.158 2.232 6.817c.358 1.094.849 3.048 1.433 5.658.13.58.264 1.19.401 1.823a399.662 399.662 0 0 1 1.612 7.86c.07.352.118.603.144.737l1.112-.88c-2.828-1.268-5.385-4.064-7.618-7.939-1.124-1.949-2.092-4.043-2.9-6.137a44.894 44.894 0 0 1-.729-2.023c-.12-.363-.2-.62-.238-.752l-1.854-6.371.286 6.629a210.637 210.637 0 0 1 .084 2.51c.074 2.655.106 5.365.073 7.892-.072 5.417-.488 9.27-1.035 9.729l.838-.118c-1.291-.572-2.772-2.565-4.23-5.491a47.993 47.993 0 0 1-1.798-4.119 51.157 51.157 0 0 1-.676-1.866c-.548-1.455-.348-3.793.418-5.145l12.88-22.723c1.207-2.128 4.157-4.411 6.515-5.047L152.17 2.334z" fill="#1055FF" fill-rule="evenodd"/></svg>
